packages/ui-icons/src/Basic/16/Services_16.svg

<svg xmlns="http://www.w3.org/2000/svg" viewBox="0 0 20 20"><path d="M16 3h-5V2h5Zm2 2h-7v1h7Zm-4 3h-3v1h3Zm3 3h-6v1h6Zm1 6h-7v1h7Zm-3-3h-4v1h4ZM9 5.51A3.5 3.5 0 1 0 5.5 9 3.5 3.5 0 0 0 9 5.51Zm-1 0A2.5 2.5 0 1 1 5.5 3 2.5 2.5 0 0 1 8 5.51Zm1 9A3.5 3.5 0 1 0 5.5 18 3.5 3.5 0 0 0 9 14.48Zm-1 0A2.5 2.5 0 1 1 5.5 12 2.5 2.5 0 0 1 8 14.48Z"/></svg>

<svg id="ready" xmlns="http://www.w3.org/2000/svg" viewBox="0 0 20 20"><title>Megaicons_work_16_1.8_cp</title><path d="M16,3H11V2h5Zm2,2H11V6h7ZM14,8H11V9h3Zm3,3H11v1h6Zm1,6H11v1h7Zm-3-3H11v1h4ZM9,5.51A3.5,3.5,0,1,0,5.5,9,3.5,3.5,0,0,0,9,5.51Zm-1,0A2.5,2.5,0,1,1,5.5,3,2.5,2.5,0,0,1,8,5.51Zm1,9A3.5,3.5,0,1,0,5.5,18,3.5,3.5,0,0,0,9,14.48Zm-1,0A2.5,2.5,0,1,1,5.5,12,2.5,2.5,0,0,1,8,14.48Z"/></svg>
